X: 1937
T: Ver Sâkî...
C: Refik Fersan
O: Turkey
F: http://compmusic.upf.edu/node/140
N: mahur--sarki--aksak--ver_saki--refik_fersan
N: makam= mahur
N: form= sarki
N: usul= aksak = 9/8
M: 9/8
L: 1/16
K: C ^9/8f   
Q: 1/4=180
%%MIDI tuningsystem comma53
d4 g4 f2a2 g4 z2 | c4e4d2 ^3/4c2d4z2  | \
w:  ARANAĞME  |   | 
z2g2 =f2e2 d2c2 B4 G2 | A4{c}_2/4B2 A2G2 F2G4z2  | 
w:   |   | 
d4 g4 f2a2 g4 z2 | c4e4d2 ^3/4c2d4z2  | \
w:  ARANAĞME  |   | 
z2g2 =f2e2 d2c2 B4 G2 | A4{c}_2/4B2 A2G2 F2G4z2  | 
w:   |   | 
d6z2 e2f2 g6 | z2 g4 a2a4g2 f2e2  | f4 g4 f2d2 e4 {f}ed | \
w:  Ver  sâ *  kî   |  ta ze len di   |  der dim  bu  *  *  *  ge  | 
d16z2  | 
w:  ce    | 
c'6b4g2 a2b2 ag | g4g2 =fedc BAG4z2  | \
w:  ah  *  *  bu  *  ge   |  ce   SAZ  | 
d6z2 e2f2 g6 | 
w:  Ver  sâ *  kî   | 
z2 g4 a2a4g2 f2e2  | f4 g4 f2d2 e4 {f}ed | \
w:  ta ze len di   |  der dim  bu  *  *  *  ge  | 
d16z2  | c'6b4g2 a2b2 ag | 
w:  ce    |  ah  *  *  bu  *  ge   | 
g4g2 d2e2 f2g4z2  | d4 g4 f2a2 g4 z2 | \
w:  ce   SAZ  |  Bir  tek  da ha  ver   | 
g3=ff2 {g}fee2 d2d4c2  | 
w:  sor *  ma  *  ge *  len   | 
e4 z8 c2B2 e2 | d16z2  | c8-c2B2 d4 cB | \
w:  kim  bu  *  ge  |  ce    |  ah  *  bu  ge  | 
B6 =fedc B^AB4z2  | 
w:  ce   SAZ  | 
d4 _2/4B4 c2=BA A4 z2 | d4d2 d2^3/4c4{e}d4z2  | \
w:  Bir  tek  da ha  *  ver   |  sor ma  ge len   | 
e2d4c2 c2_2/4B2 c4 BA | 
w:  kim  *  *  *  *  bu  ge  | 
A16z2  | d6z6 B4 AG | G6 d'c'c'b2^3/4ab4z2  | \
w:  ce    |  kim  bu  ge  |  ce   SAZ  | 
b6z2 {d'}c'4 c'4 b2 | d'16z2  | 
w:  Çok  *  pek  çok  u  |  zak   | 
c'4 c'2{d'}c'b b2a6 g2 | b4b2 {d'}baa2 g6ab  | \
w:  git me *  di *  ğim   |  gör me *  di *  ğim    | 
c'8 c'2b2 d'4 c'b | 
w:  ah  *  *  *  o   | 
b3/2^3/4a/ b14z2  | c'6b2 c'2{d'}c'b a4 z2 | \
w:  gü *  zel   |  Bir  *  yer *  *  *  den   | 
z2 c'2b2 a2g2 f2e4f2  | d4 e2f2 g2a2 b4 ag | 
w:  has *  re tin *  le   |  gel dim  *  bu  *  *  ge  | 
g12gf g2e2  | d12 b4 ag | g6 d2e2 f2g4z2  | \
w:  ce   SAZ  |  ah  bu  ge  |  ce   SAZ  | 
d4 g4 f2a2 g4 z2 | 
w:  Bir  tek  da ha  ver   | 
g3=ff2 {g}fee2 d2d4c2  | e4 z8 c2B2 e2 | \
w:  sor *  ma  *  ge *  len   |  kim  bu  *  ge  | 
d16z2  | c8-c2B2 d4 cB | 
w:  ce    |  ah  *  bu  ge  | 
B6 =fedc B^AB4z2  | d4 _2/4B4 c2=BA A4 z2 | \
w:  ce   SAZ  |  Bir  tek  da ha  *  ver   | 
d4d2 d2^3/4c4{e}d4z2  | 
w:  sor ma  ge len   | 
e2d4c2 c2_2/4B2 c4 BA | A16z2  | d6z6 B4 AG | \
w:  kim  *  *  *  *  bu  ge  |  ce    |  kim  bu  ge  | 
G6 d2e2 f2g4z2  | 
w:  ce   SAZ KARAR  | 
|


